assets/icons/qvision/portable_wifi_off.svg

<svg xmlns="http://www.w3.org/2000/svg" height="24" viewBox="0 0 24 24" width="24"><path d="M0 0h24v24H0zm0 0h24v24H0z" fill="none"/><path d="M17.56 14.24c.28-.69.44-1.45.44-2.24 0-3.31-2.69-6-6-6-.79 0-1.55.16-2.24.44l1.62 1.62c.2-.03.41-.06.62-.06 2.21 0 4 1.79 4 4 0 .21-.02.42-.05.63l1.61 1.61zM12 4c4.42 0 8 3.58 8 8 0 1.35-.35 2.62-.95 3.74l1.47 1.47C21.46 15.69 22 13.91 22 12c0-5.52-4.48-10-10-10-1.91 0-3.69.55-5.21 1.47l1.46 1.46C9.37 4.34 10.65 4 12 4zM3.27 2.5L2 3.77l2.1 2.1C2.79 7.57 2 9.69 2 12c0 3.7 2.01 6.92 4.99 8.65l1-1.73C5.61 17.53 4 14.96 4 12c0-1.76.57-3.38 1.53-4.69l1.43 1.44C6.36 9.68 6 10.8 6 12c0 2.22 1.21 4.15 3 5.19l1-1.74c-1.19-.7-2-1.97-2-3.45 0-.65.17-1.25.44-1.79l1.58 1.58L10 12c0 1.1.9 2 2 2l.21-.02.01.01 7.51 7.51L21 20.23 4.27 3.5l-1-1z"/></svg>

<svg width="24" height="24" viewBox="0 0 24 24" fill="none" xmlns="http://www.w3.org/2000/svg">
<g clip-path="url(#clip0_147_1953)">
<path d="M17.56 14.24C17.84 13.55 18 12.79 18 12C18 8.69 15.31 6 12 6C11.21 6 10.45 6.16 9.76 6.44L11.38 8.06C11.58 8.03 11.79 8 12 8C14.21 8 16 9.79 16 12C16 12.21 15.98 12.42 15.95 12.63L17.56 14.24ZM12 4C16.42 4 20 7.58 20 12C20 13.35 19.65 14.62 19.05 15.74L20.52 17.21C21.46 15.69 22 13.91 22 12C22 6.48 17.52 2 12 2C10.09 2 8.31 2.55 6.79 3.47L8.25 4.93C9.37 4.34 10.65 4 12 4ZM3.27 2.5L2 3.77L4.1 5.87C2.79 7.57 2 9.69 2 12C2 15.7 4.01 18.92 6.99 20.65L7.99 18.92C5.61 17.53 4 14.96 4 12C4 10.24 4.57 8.62 5.53 7.31L6.96 8.75C6.36 9.68 6 10.8 6 12C6 14.22 7.21 16.15 9 17.19L10 15.45C8.81 14.75 8 13.48 8 12C8 11.35 8.17 10.75 8.44 10.21L10.02 11.79L10 12C10 13.1 10.9 14 12 14L12.21 13.98L12.22 13.99L19.73 21.5L21 20.23L4.27 3.5L3.27 2.5Z" fill="#323232"/>
</g>
<defs>
<clipPath id="clip0_147_1953">
<rect width="24" height="24" fill="white"/>
</clipPath>
</defs>
</svg>
